!!!OTL: 2082. Auf die Feste der seligsten Jungfrau. / [Maria, Gnadenmutter zu Freiburg.]
!!!ODT: 1773
!!!ARE: Europa, Mitteleuropa, Deutschland
!!!SCT: E2082
!!!TXL: @@DE
!!!YEM: Copyright 1995, estate of Helmut Schaffrath.
**kern	**text
*ICvox	*
*M3/4	*
*k[b-]	*
*F:	*
=1	=1
!LO:TX:a:t=Mäßig ſchnell.	!
!LO:TX:a:t=Mel. im Einſiedeln'ſchen Geſangb. 1773 u. bei W. Ditfurth, fränk. Volksl. I, 36.	!
{4f	Wun-
4f	-der-
4f	-ſchön
=2	=2
4.f	präch-
8g	-ti-
4f;	-ge,
=3	=3
4a	ho-
4a	-he
4a	und
=4	=4
4.a	mäch-
8b-/	-ti-
4a}	-ge,
=5	=5
{4cc	lieb-
4ff	-reich
4cc	hold-
=6	=6
4.cc	-ſe-
8b-	-li-
4a	-ge,
=7	=7
8gL	himmli-
8aJ	.
4b-/	.
4a	-ſche
=8	=8
2g	Frau,
4r}	.
=9	=9
{4f	der
4f	ich
4f	mich
=10	=10
4.f	e-
8g	-wig-
4f;	-lich
=11	=11
4a	wei-
4a	-he
4a	herʒ-
=12	=12
4.a	-in-
8b-/	-nig-
4a}	-lich,
=13	=13
{4cc	Leib
4ff	dir
4cc	und
=14	=14
4.cc	See-
8b-	-le
4a	ʒu
=15	=15
8gL	ei-
8aJ	.
4b-/	-gen
4a	ver-
=16	=16
2g	-trau!
4r}	.
=17	=17
{4cc	Gut,
4a	Blut
4cc	und
=18	=18
(<4cc	Le-
8b-L	.
8aJ)	.
4b-;	-ben,
=19	=19
4b-/	will
4g	ich
4b-/	dir
=20	=20
(4b-/	ge-
8aL	.
8gJ)	.
4a;}	-ben
=21	=21
{4f	Al-
4c	-les
4f	was
=22	=22
4a	im-
4f	-mer
4a	ich
=23	=23
4cc	hab,
4a	was
4cc	ich
=24	=24
2ff;	bin,
4r}	.
=25	=25
{4ff	geb
4ee	ich
4dd	mit
=26	=26
4.cc	Freu-
8b-	-den,
4a	Ma-
=27	=27
8ccL	-ri-
8b-J	.
4a	-a
4g	dir
=28	=28
2.f;}	hin!
=29	=29
{4f	Al-
4c	-les
4f	was
=30	=30
4a	im-
4f	-mer
4a	ich
=31	=31
4cc	hab,
4a	was
4cc	ich
=32	=32
2ff;	bin,
4r}	.
=33	=33
{4ff	geb
4ee	ich
4dd	mit
=34	=34
4.cc	Freu-
8b-	-den,
4a	Ma-
=35	=35
8ccL	-ri-
8b-J	.
4a	-a
4g	dir
=36	=36
2.f;}	hin!
==	==
!!!AGN: geistlich, Marien - Lied
!!!ONB: ESAC (Essen Associative Code) Database: ERK3
!!!AMT: simple triple
!!!AIN: vox
!!!EED: Helmut Schaffrath
!!!EEV: 1.0
!!!GTL: 4. Katholische Lieder: b) Marienlieder (Rufe und Legenden.)
!!!URL-scan: https://rosdok.uni-rostock.de/mcrviewer/recordIdentifier/rosdok_ppn745177999/iview2/phys_0775.iview2?x=83.6166926599144&y=699.5740373507142&scale=0.7014306698522887&rotation=0&layout=singlePageLayout
!!!ENC: Anna Maria Matuszewska
!!!EEV: 2025/14/01
*-	*-
